svg/u1f401.svg

<svg viewBox="0 0 128 128" xmlns="http://www.w3.org/2000/svg">
  <path d="M26.05,70.79c0,0,0.33,3.83,1.94,4.54c1.62,0.71,3.09,0.6,3.86-0.05c0.77-0.65,1.92-4.03,1.92-4.03 L29.92,71L26.05,70.79z" fill="#FEEED1"/>
  <path d="M24.26,62.78c-0.12,0-0.25-0.02-0.37-0.07c-0.02-0.01-2.51-0.93-5.49-1.39 c-2.84-0.44-5.25-0.39-5.27-0.39c-0.57,0.03-1.08-0.45-1.09-1.04c-0.01-0.59,0.45-1.08,1.04-1.09c0.11,0,2.61-0.05,5.64,0.41 c3.2,0.49,5.8,1.46,5.91,1.5c0.55,0.21,0.83,0.82,0.63,1.38C25.1,62.51,24.69,62.78,24.26,62.78z" fill="#A8A8A8"/>
  <path d="M12.54,68.15c-0.38,0-0.75-0.21-0.95-0.57c-0.28-0.52-0.08-1.17,0.44-1.45 c0.11-0.06,2.72-1.44,5.55-2.1c2.8-0.66,5.71-0.75,5.83-0.75c0.58-0.02,1.08,0.45,1.1,1.04c0.02,0.59-0.45,1.08-1.04,1.1 c-0.03,0-2.82,0.09-5.4,0.69c-2.56,0.6-5.02,1.9-5.04,1.91C12.88,68.11,12.71,68.15,12.54,68.15z" fill="#A8A8A8"/>
  <path d="M14.79,74.17c-0.31,0-0.62-0.14-0.83-0.4c-0.37-0.46-0.3-1.13,0.16-1.5 c0.09-0.07,2.15-1.73,4.41-3.26c2.27-1.54,5.65-3.35,5.79-3.43c0.52-0.28,1.17-0.08,1.45,0.44c0.28,0.52,0.08,1.17-0.44,1.45 c-0.03,0.02-3.43,1.84-5.6,3.31c-2.18,1.48-4.24,3.14-4.26,3.16C15.26,74.1,15.03,74.17,14.79,74.17z" fill="#A8A8A8"/>
  <path d="M58.99,35.81c0,6.87-4.13,12.42-11.05,12.42s-13.58-3.74-13.77-11.98 c-0.16-6.87,3.71-12.1,10.96-12.94C53.44,22.34,58.99,28.94,58.99,35.81z" fill="#A8A8A8"/>
  <path d="M94.85,91.45c0,0,6.38,1.44,9.39,5.18c1.76,2.19,2.53,7.67-0.12,10.19 c-2.65,2.53-6.26,4.37-17.1,4.13c-10.84-0.24-16.25-0.6-21.31-0.24c-3.09,0.22-8.19,0.84-11.44,5.06c-2,2.59-3.72,6.82-2.17,7.46 c1.44,0.6,3.59-5.72,8.19-7.1c6.38-1.93,18.82,0.45,24.68,0.9c8.49,0.66,19.34,1.4,25.24-6.36c2.44-3.21,3.08-6.68,3.15-9.77 c0.12-5.15-2.57-9.77-6.48-12.71c-6.26-4.7-9.63-4.58-9.63-4.58L94.85,91.45z" fill="#FEACAB"/>
  <path d="M78.56,98.83c0,0-6.38,0.6-8.79,1.69c-2.41,1.08-3.97,3.13-3.01,4.45c0.96,1.32,4.09-0.36,7.83-0.48 c3.73-0.12,9.15,0.48,12.4-0.24c3.25-0.72,4.21-3.49,4.7-4.7C92.17,98.35,78.56,98.83,78.56,98.83z" fill="#FEACAB"/>
  <path d="M47.66,99.15l-2.29,0.96c0,0-1.83,0.4-2.69,2.01c-0.96,1.81,1.85,1.97,3.41,1.97s2.21-0.32,2.21-0.32 s0.8,0.92,2.61,1.04c1.81,0.12,3.97-0.12,5.06-0.84c1.08-0.72,0.96-2.77,0.96-2.77L47.66,99.15z" fill="#FEACAB"/>
  <path d="M48.14,82.3c0,0-2.77-2.05-2.77,0.24c0,2.29,1.57,9.39,1.57,10.59s-1.87,3.04-2.21,5.02 c-0.32,1.89,0.44,3.01,2.81,3.09c2.29,0.08,4.09-1,4.09-1l3.85-11.68L48.14,82.3z" fill="#A9A9A9"/>
  <path d="M50.87,41.56c0,0,0.88-12.84,12.64-13.4c10.1-0.48,15.77,7.99,14.33,17.02 c-1.44,9.03-9.87,10.47-9.87,10.47s6.5-0.06,9.81,0.3c3.55,0.39,14.03,1.99,18.84,9.93c4.82,7.95,5.66,16.49,2.89,23.72 c-2.41,6.29-6.02,8.43-7.95,9.15c-1.93,0.72-7.22,1.69-9.51,1.69s-7.1-3.13-7.1-3.13l-11.32,0.6c0,0-4.08,3.15-5.41,3.75 c-1.32,0.6-7.44,1.41-9.78-0.1c-1.34-0.86,0.14-2.57,0.62-5.58c0.48-3.01,0.68-3.61,0.6-4.78c-0.08-1.16-3.97-4.62-5.42-8.95 c-0.89-2.66-1.93-6.74-1.93-6.74l-0.36-1.93l-7.22-1.93c0,0-3.13,1.2-5.78,0.6s-4.09-2.65-4.94-4.45c-0.84-1.81-1.03-5.29-0.9-6.43 c0.17-1.43,3.52-6.56,8.82-11.51c4.32-4.03,8.53-6.3,12.62-7.26S50.87,41.56,50.87,41.56z" fill="#DFDFDF"/>
  <path d="M70.94,35.74c-2.77-2.89-8.67-3.37-12.4,0.96c-3.12,3.62-2.71,8.96,0,11.68 c2.89,2.89,9.28,3.16,12.76-1.08C74.07,43.93,73.47,38.39,70.94,35.74z" fill="#FFA7A6"/>
  <path d="M62.83,96.38c0,0-1.99,1.92-3.45,2.85c-3.09,1.97-5.78,1.81-5.7,2.93c0.03,0.48,3.69,0.52,6.46-0.92 c2.42-1.26,3.53-2.33,3.53-2.33l12.32-0.12c0,0,3.37,2.29,7.54,2.41c7.46,0.22,10.43-2.77,12.12-4.45c1.69-1.69,3.49-5.02,2.05-4.05 c-1.44,0.96-6.43,5.33-11.24,5.58c-3.68,0.19-7.22-0.28-9.66-3.33c-1.46-1.83-1.71-4.65-0.9-8.31c1.24-5.58,5.79-7.63,8.07-7.1 c4.13,0.96,4.13-1.61-0.04-3.05c-4.53-1.57-9.76,1.28-11.72,8.71C70.53,91.57,73.3,95.9,73.3,95.9S64.27,95.9,62.83,96.38z" fill="#A9A9A9"/>
  <path d="M45.77,58.98c-0.63,1.82-2.69,2.7-4.17,2.17c-1.49-0.53-2.04-2.55-1.39-4.37 c0.65-1.82,2.38-2.86,3.87-2.32C45.57,54.99,46.66,56.41,45.77,58.98z" fill="#2A2A2A"/>
  <path d="M23.32,65.41l2.63-0.01l3.29-2.97c0,0-1.69-1.77-3.13-2.25c-1.44-0.48-2.36-0.34-2.36-0.34 s-0.86,1.15-0.93,2.75C22.76,64.01,23.32,65.41,23.32,65.41z" fill="#FFA7A6"/>
  <path d="M48.26,72.12c4.45-0.54,8.67-2.53,10.51-5.12c1.35-1.9,2.49-3.85,3.69-3.05s-0.66,3.68-2.93,5.66 c-2.19,1.91-6.34,4.68-11.52,4.78c-4.44,0.09-8.65-0.18-11.16-0.84c-2.29-0.6-4.82-1.73-4.82-1.73s-1.85,1.12-3.13,0.56 c-1.28-0.56-4.09-1.57-4.82-3.61c-0.26-0.75-1.37-3.07-0.48-3.29c1.44-0.36,1.4,0.52,1.69,1.2c0.28,0.68,0.72,2.09,1.36,2.57 c0.64,0.48,2.33,1.93,3.29,1.93c0.96,0,5.46-0.72,5.46-0.72S42.87,72.78,48.26,72.12z" fill="#A9A9A9"/>
  <path d="M29.72,62.27c-0.8-0.52-1.57,0.32-2.57,1.08s-1.93,1.28-2.65,1.32c-0.72,0.04-2.05,0.04-1.93,1.16 c0.12,1.12,1.28,1,2.13,0.92c0.84-0.08,2.69-0.76,3.53-1.44C29.08,64.64,31.03,63.12,29.72,62.27z" fill="#434B55"/>
  <path d="M24.74,68.53c-0.81,0.69-0.16,1.44,0.88,2.49c1.2,1.2,3.05,1.91,4.41,1.97 c1.81,0.08,3.85-0.56,5.58-2.25c1.63-1.59-0.04-2.93-1.53-2.17s-3.41,1.89-4.09,1.85c-1-0.06-2.69-1.2-3.21-1.53 C26.27,68.57,25.55,67.85,24.74,68.53z" fill="#434B55"/>
</svg>

<svg viewBox="0 0 128 128" xmlns="http://www.w3.org/2000/svg">
  <defs/>
  <path d="M26.05,70.79 C26.05,70.79 26.38,74.62 27.99,75.33 C29.61,76.04 31.08,75.93 31.85,75.28 C32.62,74.63 33.77,71.25 33.77,71.25 L29.92,71 L26.05,70.79 Z" fill="#FEEED1"/>
  <path d="M24.26,62.78 C24.14,62.78 24.01,62.76 23.89,62.71 C23.87,62.7 21.38,61.78 18.4,61.32 C15.56,60.88 13.15,60.93 13.13,60.93 C12.56,60.96 12.05,60.48 12.04,59.89 C12.03,59.3 12.49,58.81 13.08,58.8 C13.19,58.8 15.69,58.75 18.72,59.21 C21.92,59.7 24.52,60.67 24.63,60.71 C25.18,60.92 25.46,61.53 25.26,62.09 C25.1,62.51 24.69,62.78 24.26,62.78 Z" fill="#A8A8A8"/>
  <path d="M12.54,68.15 C12.16,68.15 11.79,67.94 11.59,67.58 C11.31,67.06 11.51,66.41 12.03,66.13 C12.14,66.07 14.75,64.69 17.58,64.03 C20.38,63.37 23.29,63.28 23.41,63.28 C23.99,63.26 24.49,63.73 24.51,64.32 C24.53,64.91 24.06,65.4 23.47,65.42 C23.44,65.42 20.65,65.51 18.07,66.11 C15.51,66.71 13.05,68.01 13.03,68.02 C12.88,68.11 12.71,68.15 12.54,68.15 Z" fill="#A8A8A8"/>
  <path d="M14.79,74.17 C14.48,74.17 14.17,74.03 13.96,73.77 C13.59,73.31 13.66,72.64 14.12,72.27 C14.21,72.2 16.27,70.54 18.53,69.01 C20.8,67.47 24.18,65.66 24.32,65.58 C24.84,65.3 25.49,65.5 25.77,66.02 C26.05,66.54 25.85,67.19 25.33,67.47 C25.3,67.49 21.9,69.31 19.73,70.78 C17.55,72.26 15.49,73.92 15.47,73.94 C15.26,74.1 15.03,74.17 14.79,74.17 Z" fill="#A8A8A8"/>
  <path d="M58.99,35.81 C58.99,42.68 54.86,48.23 47.94,48.23 C41.02,48.23 34.36,44.49 34.17,36.25 C34.01,29.38 37.88,24.15 45.13,23.31 C53.44,22.34 58.99,28.94 58.99,35.81 Z" fill="#A8A8A8"/>
  <path d="M94.85,91.45 C94.85,91.45 101.23,92.89 104.24,96.63 C106,98.82 106.77,104.3 104.12,106.82 C101.47,109.35 97.86,111.19 87.02,110.95 C76.18,110.71 70.77,110.35 65.71,110.71 C62.62,110.93 57.52,111.55 54.27,115.77 C52.27,118.36 50.55,122.59 52.1,123.23 C53.54,123.83 55.69,117.51 60.29,116.13 C66.67,114.2 79.11,116.58 84.97,117.03 C93.46,117.69 104.31,118.43 110.21,110.67 C112.65,107.46 113.29,103.99 113.36,100.9 C113.48,95.75 110.79,91.13 106.88,88.19 C100.62,83.49 97.25,83.61 97.25,83.61 L94.85,91.45 Z" fill="#FEACAB"/>
  <path d="M78.56,98.83 C78.56,98.83 72.18,99.43 69.77,100.52 C67.36,101.6 65.8,103.65 66.76,104.97 C67.72,106.29 70.85,104.61 74.59,104.49 C78.32,104.37 83.74,104.97 86.99,104.25 C90.24,103.53 91.2,100.76 91.69,99.55 C92.17,98.35 78.56,98.83 78.56,98.83 Z" fill="#FEACAB"/>
  <path d="M47.66,99.15 L45.37,100.11 C45.37,100.11 43.54,100.51 42.68,102.12 C41.72,103.93 44.53,104.09 46.09,104.09 C47.65,104.09 48.3,103.77 48.3,103.77 C48.3,103.77 49.1,104.69 50.91,104.81 C52.72,104.93 54.88,104.69 55.97,103.97 C57.05,103.25 56.93,101.2 56.93,101.2 L47.66,99.15 Z" fill="#FEACAB"/>
  <path d="M48.14,82.3 C48.14,82.3 45.37,80.25 45.37,82.54 C45.37,84.83 46.94,91.93 46.94,93.13 C46.94,94.33 45.07,96.17 44.73,98.15 C44.41,100.04 45.17,101.16 47.54,101.24 C49.83,101.32 51.63,100.24 51.63,100.24 L55.48,88.56 L48.14,82.3 Z" fill="#A9A9A9"/>
  <path d="M50.87,41.56 C50.87,41.56 51.75,28.72 63.51,28.16 C73.61,27.68 79.28,36.15 77.84,45.18 C76.4,54.21 67.97,55.65 67.97,55.65 C67.97,55.65 74.47,55.59 77.78,55.95 C81.33,56.34 91.81,57.94 96.62,65.88 C101.44,73.83 102.28,82.37 99.51,89.6 C97.1,95.89 93.49,98.03 91.56,98.75 C89.63,99.47 84.34,100.44 82.05,100.44 C79.76,100.44 74.95,97.31 74.95,97.31 L63.63,97.91 C63.63,97.91 59.55,101.06 58.22,101.66 C56.9,102.26 50.78,103.07 48.44,101.56 C47.1,100.7 48.58,98.99 49.06,95.98 C49.54,92.97 49.74,92.37 49.66,91.2 C49.58,90.04 45.69,86.58 44.24,82.25 C43.35,79.59 42.31,75.51 42.31,75.51 L41.95,73.58 L34.73,71.65 C34.73,71.65 31.6,72.85 28.95,72.25 C26.3,71.65 24.86,69.6 24.01,67.8 C23.17,65.99 22.98,62.51 23.11,61.37 C23.28,59.94 26.63,54.81 31.93,49.86 C36.25,45.83 40.46,43.56 44.55,42.6 C48.64,41.64 50.87,41.56 50.87,41.56 Z" fill="#DFDFDF"/>
  <path d="M70.94,35.74 C68.17,32.85 62.27,32.37 58.54,36.7 C55.42,40.32 55.83,45.66 58.54,48.38 C61.43,51.27 67.82,51.54 71.3,47.3 C74.07,43.93 73.47,38.39 70.94,35.74 Z" fill="#FFA7A6"/>
  <path d="M62.83,96.38 C62.83,96.38 60.84,98.3 59.38,99.23 C56.29,101.2 53.6,101.04 53.68,102.16 C53.71,102.64 57.37,102.68 60.14,101.24 C62.56,99.98 63.67,98.91 63.67,98.91 L75.99,98.79 C75.99,98.79 79.36,101.08 83.53,101.2 C90.99,101.42 93.96,98.43 95.65,96.75 C97.34,95.06 99.14,91.73 97.7,92.7 C96.26,93.66 91.27,98.03 86.46,98.28 C82.78,98.47 79.24,98 76.8,94.95 C75.34,93.12 75.09,90.3 75.9,86.64 C77.14,81.06 81.69,79.01 83.97,79.54 C88.1,80.5 88.1,77.93 83.93,76.49 C79.4,74.92 74.17,77.77 72.21,85.2 C70.53,91.57 73.3,95.9 73.3,95.9 C73.3,95.9 64.27,95.9 62.83,96.38 Z" fill="#A9A9A9"/>
  <path d="M45.77,58.98 C45.14,60.8 43.08,61.68 41.6,61.15 C40.11,60.62 39.56,58.6 40.21,56.78 C40.86,54.96 42.59,53.92 44.08,54.46 C45.57,54.99 46.66,56.41 45.77,58.98 Z" fill="#2A2A2A"/>
  <path d="M23.32,65.41 L25.95,65.4 L29.24,62.43 C29.24,62.43 27.55,60.66 26.11,60.18 C24.67,59.7 23.75,59.84 23.75,59.84 C23.75,59.84 22.89,60.99 22.82,62.59 C22.76,64.01 23.32,65.41 23.32,65.41 Z" fill="#FFA7A6"/>
  <path d="M48.26,72.12 C52.71,71.58 56.93,69.59 58.77,67 C60.12,65.1 61.26,63.15 62.46,63.95 C63.66,64.75 61.8,67.63 59.53,69.61 C57.34,71.52 53.19,74.29 48.01,74.39 C43.57,74.48 39.36,74.21 36.85,73.55 C34.56,72.95 32.03,71.82 32.03,71.82 C32.03,71.82 30.18,72.94 28.9,72.38 C27.62,71.82 24.81,70.81 24.08,68.77 C23.82,68.02 22.71,65.7 23.6,65.48 C25.04,65.12 25,66 25.29,66.68 C25.57,67.36 26.01,68.77 26.65,69.25 C27.29,69.73 28.98,71.18 29.94,71.18 C30.9,71.18 35.4,70.46 35.4,70.46 C35.4,70.46 42.87,72.78 48.26,72.12 Z" fill="#A9A9A9"/>
  <path d="M29.72,62.27 C28.92,61.75 28.15,62.59 27.15,63.35 C26.15,64.11 25.22,64.63 24.5,64.67 C23.78,64.71 22.45,64.71 22.57,65.83 C22.69,66.95 23.85,66.83 24.7,66.75 C25.54,66.67 27.39,65.99 28.23,65.31 C29.08,64.64 31.03,63.12 29.72,62.27 Z" fill="#434B55"/>
  <path d="M24.74,68.53 C23.93,69.22 24.58,69.97 25.62,71.02 C26.82,72.22 28.67,72.93 30.03,72.99 C31.84,73.07 33.88,72.43 35.61,70.74 C37.24,69.15 35.57,67.81 34.08,68.57 C32.59,69.33 30.67,70.46 29.99,70.42 C28.99,70.36 27.3,69.22 26.78,68.89 C26.27,68.57 25.55,67.85 24.74,68.53 Z" fill="#434B55"/>
</svg>
